src/svg/board.svg

<svg xmlns="http://www.w3.org/2000/svg" width="1000" height="1000" viewBox="0 0 1000 1000"><g fill-rule="evenodd" clip-rule="evenodd" fill="#0E0A0A"><path d="M872.756 208.231h-489.328c7.551 21.351 12.428 44.145 12.428 68.164 0 112.861-91.504 204.365-204.365 204.365-24.048 0-46.799-4.853-68.15-12.532v319.083c0 37.629 30.535 68.06 68.15 68.06h681.266c37.629 0 68.06-30.431 68.06-68.06v-510.916c-.002-37.629-30.432-68.164-68.061-68.164zm-.096 579.08l-681.17-.096h-.132s.132-148.195.132-238.305c150.253 0 272.535-122.263 272.535-272.516h408.73l-.095 510.917zM327.705 276.395c0-75.349-60.97-136.319-136.215-136.319s-136.214 60.97-136.214 136.319c0 75.232 60.97 136.216 136.214 136.216 75.245 0 136.215-60.985 136.215-136.216zm-204.274 0c0-37.629 30.534-68.164 68.059-68.164s68.06 30.535 68.06 68.164c0 37.512-30.534 68.046-68.06 68.046-37.525 0-68.059-30.535-68.059-68.046z"/></g></svg>

<?xml version="1.0" encoding="utf-8"?>
<!-- Generator: Adobe Illustrator 16.0.0, SVG Export Plug-In . SVG Version: 6.00 Build 0)  -->
<!DOCTYPE svg PUBLIC "-//W3C//DTD SVG 1.1//EN" "http://www.w3.org/Graphics/SVG/1.1/DTD/svg11.dtd">
<svg version="1.1" id="Layer_1" xmlns="http://www.w3.org/2000/svg" xmlns:xlink="http://www.w3.org/1999/xlink" x="0px" y="0px"
	 width="1000px" height="1000px" viewBox="0 0 1000 1000" enable-background="new 0 0 1000 1000" xml:space="preserve">
<g>
	<path fill-rule="evenodd" clip-rule="evenodd" fill="#0E0A0A" d="M872.756,208.231H383.428
		c7.551,21.351,12.428,44.145,12.428,68.164c0,112.861-91.504,204.365-204.365,204.365c-24.048,0-46.799-4.853-68.15-12.532v319.083
		c0,37.629,30.535,68.06,68.15,68.06h681.266c37.629,0,68.06-30.431,68.06-68.06V276.395
		C940.815,238.766,910.385,208.231,872.756,208.231z M872.66,787.311l-681.17-0.096c-0.132,0-0.132,0-0.132,0
		s0.132-148.195,0.132-238.305c150.253,0,272.535-122.263,272.535-272.516c112.385,0,408.73,0,408.73,0L872.66,787.311z"/>
	<path fill-rule="evenodd" clip-rule="evenodd" fill="#0E0A0A" d="M327.705,276.395c0-75.349-60.97-136.319-136.215-136.319
		c-75.245,0-136.214,60.97-136.214,136.319c0,75.232,60.97,136.216,136.214,136.216
		C266.735,412.611,327.705,351.626,327.705,276.395z M123.431,276.395c0-37.629,30.534-68.164,68.059-68.164
		c37.525,0,68.06,30.535,68.06,68.164c0,37.512-30.534,68.046-68.06,68.046C153.965,344.441,123.431,313.906,123.431,276.395z"/>
</g>
</svg>
